X:1
T:Petite fleur
T:Jean de Castro
T:Source : La fleur des chansons à 3---Louvain---P.Phalèse---1574. Editor : André Vierendeels (18/09/18) Notes : Original clefs : G2, C2, C3 Original note values have been halved Editorial accidentals above the staff 
T:Petite fleur
T:©
T:©
T:©
T:©
T:©
T:©
C:Jean de Castro
Z:©
%%score [ 1 2 3 ]
L:1/8
Q:1/4=96
M:2/2
K:C
V:1 treble nm="Soprano" snm="S"
V:2 treble nm="Alto" snm="A"
V:3 treble-8 nm="Tenor" snm="T"
V:1
 z4 G2 GA | B3 c d2 B2 | AG A2 Bc>BA | G2 z G G>A B2 | z d2 c2 B A2 | G2 g2 e>d ^c2 | z de^f geff | %7
w: Pe- ti- te|fleur coin- t'et io-|ly- * * * * * *|e, pe- ti- te fleur|coin- t'et io- ly-|e, las, di- tes moy|si vous m'ay- mez, si vous m'ay-|
 g2 z d ^cd e2 | z2 g2 g>fed | cB A2 z2 e2 | e>dcB A G3/2F/4E/4F | G2 z2 z4 | z4 z BcB | %13
w: mez, las, di- tes moy|las, di- tes moy si|vous m'ay- mez, las,|di- tes moy si vous m'ay- * * *|mez,|a- vec- que|
 A2 z e fe d2 | z Bc>B A2 z G | EEDD G4 | z2 z G cdeg | ffed z cee | d2 e2 z4 | z Gcd eefd | %20
w: moy, a- vec- que moy,|a- vec- que moy plus|n'at- ten- dez, car il,|car il m'en- nuyt, ma|dou- ce'a- my- e, ma dou- ce'a-|my- e,|car il m'en- nuyt, ma dou- ce'a-|
 ed/c/BA Bc d2- | dc B2 AG A2 | B8 | z2 z G cdeg | ffed z cee | d2 e2 z4 | z Gcd eefd | %27
w: my- * * * * * * *||e,|car il m'en- nuyt, ma|dou- ce'a- my- e, ma dou- ce'a-|my- e,|car il m'en- nuyt, ma dou- ce'a-|
 ed/c/BA Bc d2- | dc B2 AG A2 | B8 |] %30
w: my- * * * * * * *||e.|
V:2
 C2 CD E3 F | G2 E2 DCDE | ^F G2 F G2 z2 | z CC>D E2 G2 | ^F2 GA3/2 G<GF/4E/4F | G4 c2 AA | %6
w: Pe- ti- te fleur coin-|t'et io- ly- * * *|* * * e|pe- ti- te fleur coin-|t'et io- ly- * * * * *|e, las, di- tes|
 G2 z2 z cAA | G2 z G ABcc | B>A B2 z ccB | AGGF G2 z G | G>FGB c2 A2 | GBc>B A2 z A | %12
w: moy, las, di- tes|moy si vous m'ay- mez, si|vous m'ay- mez, las, di- tes|moy si vous m'ay- mez, las,|di- tes moy si vous m'ay-|mez, a- vec- que moy, a-|
 GFED FGA G/F/ | Ecc>B AABB | G2 z E F>EDE- | E C2 B, CG,CD | EFGG A2 G2 | z2 G2 AABc | %18
w: vec- que moy plus n'at- ten- dez, _ _|_ a- vec- que moy plus n'at- ten-|dez, a- vec- que moy plus|_ n'at- ten- dez, car il m'en-|nuyt, ma dou- ce'a- my- e,|car il m'en- nuyt, ma|
 cBc G2 GG^F | GC z G2 A2 B | cA G3 G A2- | AG G3 ^F/E/ F2 | G2 D2 EF G2 | z ^FGG A2 G2 | %24
w: dou- ce'a- my- e, ma dou- ce'a-|my- e, car il m'en-|nuyt, ma dou- ce'a- my-||e, car il m'en- nuyt,|ma dou- ce'a- my- e,|
 z2 G2 AABc | cBc G2 GGF | GC z G2 A2 B | cA G3 G A2- | AG G3 ^F/E/ F2 | G8 |] %30
w: car il m'n- nuyt, ma|dou- ce'a- my- e, ma dou- ce'a-|my- e, car il m'en-|nuyt ma dou- ce'a- my-||e.|
V:3
 z8 | G2 GA B3 c | de d2 Gccd | e2 g2 c2 G2 | d2 Gf eg d2 | e4 z4 | z ged c2 z d | e>f g2 z4 | %8
w: |Pe- ti- te fleur coin-|t'et io- ly- e, pe- ti- te|fleur coin- t't io-|ly- e, coin- t'et io- ly-|e,|las, di- tes moy si|vous m'ay- mez,|
 g2 g>f e>dcG | Aecd e2 z c | c>deg c2 d2 | e2 z e f>e d2 | z dcB AGFG | A4 z4 | G2 A>G F2 G2 | %15
w: las, di- tes moy si vous m'ay-|mez, si vous ma'ay- mez, las,|di- tes moy si vous m'ay-|mez, a- vec- que moy,|a- vec- que moy plus n'at- ten-|dez,|a- vec- que moy plus|
 Ac G2 z2 z G | cd e2 z2 c2 | ddeg ffe d/c/ | g2 c2 z Gcd | e2 z2 z2 z G | cd e4 d2 | f2 g2 d4 | %22
w: n'at- ten- dez, car|il m'en- nuyt, car|il m'en- nuyt, ma dou- ce'a- my- * *|* e, car il m'en-|nuyt, car|il m'en- nuyt, ma|dou- ce'a- my-|
 G4 z2 G2 | cd e2 z2 c2 | ddeg ffe d/c/ | g2 c2 z Gcd | e2 z2 z2 z G | cd e4 d2 | f2 g2 d4 | G8 |] %30
w: e, car|il m'en- nuyt, car|il m'en- nuyt, ma dou- ce'a- my- * *|* e, car il m'en-|nuyt, car|il m'en- nuyt ma|dou- ce'a- my-|e.|

